icons/airfield-15.svg

<?xml version="1.0" encoding="UTF-8" standalone="no"?>
<!-- Generator: Adobe Illustrator 17.1.0, SVG Export Plug-In . SVG Version: 6.00 Build 0)  -->

<svg
   xmlns:dc="http://purl.org/dc/elements/1.1/"
   xmlns:cc="http://creativecommons.org/ns#"
   xmlns:rdf="http://www.w3.org/1999/02/22-rdf-syntax-ns#"
   xmlns:svg="http://www.w3.org/2000/svg"
   xmlns="http://www.w3.org/2000/svg"
   xmlns:sodipodi="http://sodipodi.sourceforge.net/DTD/sodipodi-0.dtd"
   xmlns:inkscape="http://www.inkscape.org/namespaces/inkscape"
   version="1.1"
   id="svg4619"
   inkscape:version="0.91+devel+osxmenu r12911"
   sodipodi:docname="airfield-15.svg"
   x="0px"
   y="0px"
   height='15'
   width='15'
   viewBox="0 0 15 15"
   enable-background="new 0 0 15 15"
   xml:space="preserve"><metadata
     id="metadata8"><rdf:RDF><cc:Work
         rdf:about=""><dc:format>image/svg+xml</dc:format><dc:type
           rdf:resource="http://purl.org/dc/dcmitype/StillImage" /><dc:title /></cc:Work></rdf:RDF></metadata><defs
     id="defs6" /><sodipodi:namedview
     inkscape:window-x="0"
     inkscape:window-y="23"
     inkscape:window-width="1280"
     inkscape:pageopacity="0"
     inkscape:window-height="755"
     inkscape:current-layer="svg4619"
     inkscape:window-maximized="0"
     inkscape:document-units="px"
     inkscape:pageshadow="2"
     id="namedview3346"
     gridtolerance="10"
     borderopacity="1"
     bordercolor="#666666"
     inkscape:cx="12.101586"
     guidetolerance="10"
     showgrid="true"
     pagecolor="#ffffff"
     inkscape:cy="8.8119352"
     objecttolerance="10"
     inkscape:zoom="32"
     inkscape:snap-intersection-paths="true"
     inkscape:snap-bbox="true"
     inkscape:object-nodes="true"
     inkscape:object-paths="true"
     inkscape:snap-smooth-nodes="true"
     inkscape:bbox-nodes="true"
     inkscape:bbox-paths="true"
     inkscape:snap-bbox-edge-midpoints="true"
     inkscape:snap-bbox-midpoints="true"><inkscape:grid
       type="xygrid"
       id="grid3336"
       spacingx="0.5"
       spacingy="0.5"
       empspacing="2"
       color="#b70036"
       opacity="0.1254902" /></sodipodi:namedview><path
     style="fill:#000000;fill-opacity:1;stroke-width:1"
     d="m 6.818182,0.6818182 -2.045455,0 C 4.090909,0.6818182 4.090909,0 4.772727,0 l 5.454546,0 c 0.681818,0 0.681818,0.6818182 0,0.6818182 l -2.045455,0 c 0,0 0.818182,0.590909 0.818182,1.9545454 L 9,4 15,4 15,6 9,8 8.5,13 11,14.318182 11,15 4,15 4,14.318182 6.5,13 6,8 0,6 0,4 6,4 6,2.6363636 C 6,1.2727272 6.818182,0.6818182 6.818182,0.6818182 Z"
     id="path5"
     inkscape:connector-curvature="0"
     sodipodi:nodetypes="ccccccsccccccccccccccsc" /></svg>

<?xml version="1.0" encoding="utf-8"?>
<!-- Generator: Adobe Illustrator 19.2.1, SVG Export Plug-In . SVG Version: 6.00 Build 0)  -->
<!DOCTYPE svg PUBLIC "-//W3C//DTD SVG 1.1//EN" "http://www.w3.org/Graphics/SVG/1.1/DTD/svg11.dtd">
<svg version="1.1"
	 id="svg4619" inkscape:version="0.91+devel+osxmenu r12911" sodipodi:docname="airfield-15.svg" xmlns:cc="http://creativecommons.org/ns#" xmlns:dc="http://purl.org/dc/elements/1.1/" xmlns:inkscape="http://www.inkscape.org/namespaces/inkscape" xmlns:rdf="http://www.w3.org/1999/02/22-rdf-syntax-ns#" xmlns:sodipodi="http://sodipodi.sourceforge.net/DTD/sodipodi-0.dtd" xmlns:svg="http://www.w3.org/2000/svg"
	 xmlns="http://www.w3.org/2000/svg" xmlns:xlink="http://www.w3.org/1999/xlink" x="0px" y="0px" width="15px" height="15px"
	 viewBox="0 0 15 15" style="enable-background:new 0 0 15 15;" xml:space="preserve">
<path id="path5" inkscape:connector-curvature="0" sodipodi:nodetypes="ccccccsccccccccccccccsc" d="M6.8182,0.6818H4.7727
	C4.0909,0.6818,4.0909,0,4.7727,0h5.4545c0.6818,0,0.6818,0.6818,0,0.6818H8.1818c0,0,0.8182,0.5909,0.8182,1.9545V4h6v2L9,8l-0.5,5
	l2.5,1.3182V15H4v-0.6818L6.5,13L6,8L0,6V4h6V2.6364C6,1.2727,6.8182,0.6818,6.8182,0.6818z"/>
</svg>
